assets/icons/globe.svg

<?xml version="1.0" encoding="UTF-8" standalone="no"?>
<svg viewBox="0 0 24 24" height="24" width="24" version="1.1" id="svg4" sodipodi:docname="globe.svg" inkscape:version="1.1 (ce6663b3b7, 2021-05-25)"
   xmlns:inkscape="http://www.inkscape.org/namespaces/inkscape"
   xmlns:sodipodi="http://sodipodi.sourceforge.net/DTD/sodipodi-0.dtd"
   xmlns="http://www.w3.org/2000/svg"
   xmlns:svg="http://www.w3.org/2000/svg">
   <defs id="defs8" />
   <sodipodi:namedview id="namedview6" pagecolor="#ffffff" bordercolor="#666666" borderopacity="1.0" inkscape:pageshadow="2" inkscape:pageopacity="0.0" inkscape:pagecheckerboard="0" showgrid="true" width="24px" inkscape:zoom="28" inkscape:cx="22.482143" inkscape:cy="10.625" inkscape:window-width="1920" inkscape:window-height="1016" inkscape:window-x="0" inkscape:window-y="27" inkscape:window-maximized="1" inkscape:current-layer="svg4">
      <inkscape:grid type="xygrid" id="grid6" />
   </sodipodi:namedview>
   <path id="path2" style="line-height:normal;font-variant-ligatures:normal;font-variant-position:normal;font-variant-caps:normal;font-variant-numeric:normal;font-variant-alternates:normal;font-feature-settings:normal;text-indent:0;text-align:start;text-decoration-line:none;text-decoration-style:solid;text-decoration-color:#000000;text-transform:none;shape-padding:0;isolation:auto;mix-blend-mode:normal;stroke-width:0.999997;marker:none;fill:#808080;fill-opacity:1" d="M 12 2 A 10 10 0 0 0 2 12 A 10 10 0 0 0 12 22 A 10 10 0 0 0 22 12 A 10 10 0 0 0 12 2 z M 12 3 C 11.98197 3.00174 11.963343 3.0039894 11.945312 3.0058594 L 11.921875 3.7167969 L 13.109375 3.8945312 L 13.835938 3.1914062 C 13.385571 3.0968554 12.929765 3.0363913 12.470703 3.0117188 A 9 9 0 0 1 13.835938 3.1914062 A 9 9 0 0 1 17.728516 5.0625 A 9 9 0 0 1 18.091797 5.3789062 C 17.973981 5.2703285 17.851914 5.1645998 17.728516 5.0625 C 17.232097 4.6517648 16.691227 4.2950245 16.115234 3.9980469 L 15.880859 4.3789062 L 16.673828 5.0800781 L 15.880859 5.7421875 L 16.189453 6.5351562 L 17.949219 5.6992188 L 19.050781 6.5351562 L 19.078125 6.4472656 C 18.878339 6.1921647 18.66453 5.9498774 18.439453 5.71875 C 18.328844 5.6051671 18.215938 5.4941903 18.099609 5.3867188 A 9 9 0 0 1 18.439453 5.71875 A 9 9 0 0 1 19.078125 6.4472656 A 9 9 0 0 1 19.679688 7.3125 A 9 9 0 0 1 19.984375 7.8515625 A 9 9 0 0 1 20.25 8.4082031 A 9 9 0 0 1 20.458984 8.9355469 C 20.394556 8.7580059 20.325601 8.5816165 20.25 8.4082031 C 20.16797 8.2200427 20.079372 8.0341953 19.984375 7.8515625 C 19.889378 7.6689297 19.787455 7.4889098 19.679688 7.3125 L 18.652344 7.5019531 L 17.992188 6.796875 L 15.970703 6.9296875 L 14.736328 8.8652344 L 15.574219 10.931641 L 18.300781 11.769531 L 18.832031 14.982422 L 19.488281 16.652344 L 19.769531 16.494141 A 9 9 0 0 1 12 21 A 9 9 0 0 1 3 12 A 9 9 0 0 1 3.4707031 9.1503906 L 3.4765625 9.1738281 L 4.8847656 9.5683594 L 6.7324219 10.931641 L 6.7753906 12.912109 L 7.9648438 14.539062 L 8.6660156 18.941406 L 9.9414062 19.732422 L 9.5898438 18.103516 L 11.746094 15.113281 L 12.669922 13.089844 L 10.515625 11.064453 L 8.1816406 9.9667969 L 7.2167969 10.537109 L 6.0703125 8.8203125 L 5.4121094 9.1308594 L 4.8398438 8.1621094 L 5.8535156 7.6347656 L 6.8183594 8.2050781 L 8.4921875 6.1367188 L 10.910156 4.640625 L 10.25 3.4082031 L 8.2714844 4.1132812 L 8.0859375 3.9121094 C 7.958313 3.9737726 7.832994 4.0381751 7.7089844 4.1054688 A 9 9 0 0 1 12 3 z M 6.9101562 4.5957031 C 6.7895737 4.6784698 6.6707896 4.7632568 6.5546875 4.8515625 A 9 9 0 0 1 6.9101562 4.5957031 z M 5.7890625 5.5058594 C 5.6955478 5.5951329 5.6031974 5.6861411 5.5136719 5.7792969 A 9 9 0 0 1 5.7890625 5.5058594 z M 4.8632812 6.5390625 C 4.7770833 6.6514304 4.6941616 6.766382 4.6132812 6.8828125 A 9 9 0 0 1 4.8632812 6.5390625 z M 4.0722656 7.7617188 C 4.0178795 7.863117 3.9665861 7.966656 3.9160156 8.0703125 A 9 9 0 0 1 4.0722656 7.7617188 z M 20.496094 9.0410156 A 9 9 0 0 1 20.640625 9.4902344 C 20.59671 9.3394065 20.547867 9.1894042 20.496094 9.0410156 z M 20.671875 9.5957031 A 9 9 0 0 1 20.808594 10.162109 A 9 9 0 0 1 20.90625 10.720703 C 20.879237 10.53328 20.847306 10.347172 20.808594 10.162109 C 20.768712 9.9714571 20.724007 9.7832615 20.671875 9.5957031 z M 20.919922 10.832031 A 9 9 0 0 1 20.970703 11.306641 C 20.95835 11.147842 20.940629 10.989598 20.919922 10.832031 z M 20.980469 11.423828 A 9 9 0 0 1 21 12 C 20.999888 11.80763 20.992832 11.615046 20.980469 11.423828 z M 20.898438 13.275391 A 9 9 0 0 1 20.845703 13.585938 C 20.86475 13.482774 20.882997 13.379248 20.898438 13.275391 z M 20.619141 14.53125 A 9 9 0 0 1 20.425781 15.099609 C 20.495882 14.911996 20.561758 14.722941 20.619141 14.53125 z M 20.195312 15.658203 A 9 9 0 0 1 19.769531 16.492188 C 19.927772 16.221429 20.066807 15.942387 20.195312 15.658203 z " />
</svg>

<svg height="24" width="24" xmlns="http://www.w3.org/2000/svg"><path style="line-height:normal;font-variant-ligatures:normal;font-variant-position:normal;font-variant-caps:normal;font-variant-numeric:normal;font-variant-alternates:normal;font-feature-settings:normal;text-indent:0;text-align:start;text-decoration-line:none;text-decoration-style:solid;text-decoration-color:#000;text-transform:none;shape-padding:0;isolation:auto;mix-blend-mode:normal;stroke-width:.999997;marker:none;fill:gray;fill-opacity:1" d="M12 2A10 10 0 0 0 2 12a10 10 0 0 0 10 10 10 10 0 0 0 10-10A10 10 0 0 0 12 2zm0 1-.055.006-.023.71 1.187.179.727-.704a8.99 8.99 0 0 0-1.365-.18 9 9 0 0 1 1.365.18 9 9 0 0 1 3.893 1.872 9 9 0 0 1 .363.316 9.049 9.049 0 0 0-1.977-1.381l-.234.38.793.702-.793.662.308.793 1.76-.836 1.102.836.027-.088a8.992 8.992 0 0 0-.978-1.06 9 9 0 0 1 .34.332 9 9 0 0 1 .638.728 9 9 0 0 1 .602.865 9 9 0 0 1 .304.54 9 9 0 0 1 .266.556 9 9 0 0 1 .209.528 9.01 9.01 0 0 0-.475-1.084 9.016 9.016 0 0 0-.304-.54l-1.028.19-.66-.705-2.021.133-1.235 1.935.838 2.067 2.727.838.531 3.212.656 1.67.282-.158A9 9 0 0 1 12 21a9 9 0 0 1-9-9 9 9 0 0 1 .47-2.85l.007.024 1.408.394 1.847 1.364.043 1.98 1.19 1.627.701 4.402 1.275.791-.351-1.628 2.156-2.99.924-2.024-2.154-2.026-2.334-1.097-.965.57L6.07 8.82l-.658.31-.572-.968 1.014-.527.964.57 1.674-2.068L10.91 4.64l-.66-1.233-1.979.705-.185-.2a8.985 8.985 0 0 0-.377.192A9 9 0 0 1 12 3zM6.91 4.596a8.99 8.99 0 0 0-.355.256 9 9 0 0 1 .355-.256zm-1.12.91c-.094.09-.187.18-.276.273a9 9 0 0 1 .275-.273zm-.927 1.033a8.632 8.632 0 0 0-.25.344 9 9 0 0 1 .25-.344zm-.79 1.223a9.015 9.015 0 0 0-.157.308 9 9 0 0 1 .156-.308zM20.495 9.04a9 9 0 0 1 .145.45 8.429 8.429 0 0 0-.145-.45zm.176.555a9 9 0 0 1 .137.566 9 9 0 0 1 .097.559 8.986 8.986 0 0 0-.234-1.125zm.248 1.236a9 9 0 0 1 .05.475 9.002 9.002 0 0 0-.05-.475zm.06.592A9 9 0 0 1 21 12c0-.192-.007-.385-.02-.576zm-.082 1.851a9 9 0 0 1-.052.31 9.01 9.01 0 0 0 .052-.31zm-.279 1.256a9 9 0 0 1-.193.569 9 9 0 0 0 .193-.569zm-.424 1.127a9 9 0 0 1-.425.834c.158-.27.297-.55.425-.834z"/></svg>
